X:1
T:Nocturne in E♭ Major Op. 9 No. 2
T:Frédéric Chopin
T:Nocturne in E♭ Major with Mikuli's Variants
T:Op. 9 No. 2
T:Public Domain
T:Public Domain
T:Public Domain
Z:Public Domain
%%score { ( 1 3 ) | ( 2 4 ) }
L:1/8
Q:1/8=132
M:12/8
K:Eb
V:1 treble nm="Piano"
V:3 treble 
V:2 bass 
V:4 bass 
V:1
"^Andante. (.)"!p! B | g3- g(fg f3 e2) (B |!<(! g2 !turn!c!<)! c'2 g _b3 (a2 g)) | %3
 f3 (g2 d) e3 c3 | %4
 (Bd')(c' b/a/g/a/)!f!(c/d/ e3) (14:12:14z/4 B/4c/4B/4=A/4B/4=B/4c/4^c/4d/4e/4=e/4f/4^f/4 | %5
!p! g3 (f/g/Pf/=e/f/g/ f) _e2- e/(f/Pe/d/e/f/ | %6
!<(! g/)(=B/c/)(!>!_d/c/)(!>!f/=e/)(!>!a/g/)(_d'/c'/)!<)!g/!>(! _b3 (a2!>)! g) | %7
 !trill(!Tf3{=ef} .g(gd) (_e3 c3) | (Bd')z/(c'/- (7:6:7c'/b/a/g/a/{/a}c/d/ e3-) ede | %9
!p! f3!>(! (g2!>)! f)!pp! (f3 c3) |[Q:1/4=62]"_poco ritard." (.e.e.e e)(d/e/f/>e/ e3) B3 | %11
[Q:1/4=66]"^Tempo I."!f! (b3 =a2) g [=Af]3 [B=d]3 | %12
 [Ge]3 (.[=Ad].[Ac].[Ad] .[FB])(.[^F=B].[=EB] .[E_Bc].[=FAc]).[_Ad] | %13
[Q:1/4=66]"^Tempo I."!p!({GBe)} g2 (=A/B/ _c/B/^c/d/g/>)f/ f2 e- (e/f/Pe/d/e/f/ | %14
 f/4)=B/4c/4_d/4c/4f/4=e/4a/4g/4_d'/4c'/4c'/4!8va(!c''/4=b'/4_b'/4g'/4=e'/4!8va)!=d'/4c'/4=b/4c'/4d'/4g/4c'/4 _b3!>(! a2 g-!>)! | %15
!p!{/g} !trill(!Tf3{=ef^f} .g(!>!gd)!<(! (_e3!<)! c3) | %16
[Q:3/8=30] (31:24:31B/4d'/4z/4((_d'/4c'/4=b/4_b/4=a/4_a/4f/4d/4_c/4B/4=c/4B/4^c/4B/4d/4B/4=c/4B/4=B/4c/4^c/4d/4e/4=e/4g/4)(g/4f/4_e/4 e3-))[Q:3/8=40] ede | %17
 (f3 g2 f) (f3 c3) |[Q:1/4=62]"_poco ritard" (4:3:4(eeee ed/e/f/>e/) (e3!<(! B3)!<)! | %19
!f! ((b3 =a2) g!>(! [=Af]3!>)! [Bd]3) | %20
 [Ge]3 (.[=Ad].[Ac].[Ad]) (.[FB].[^F=B].[=EB] .[E_Bc].[=FAc].[_Ad]) | %21
[Q:1/4=66]"^Tempo I."!p!{GBe} g2 (=A/B/ !>!_c/B/^c/d/!>!g/>f/)!>(! f2!>)! e- e/(f/Te/!<(!d/e/f/!<)! | %22
[Q:3/8=30] (34:24:34(g/4)=B/4c/4_d/4c/4f/4=e/4a/4g/4_d'/4c'/4c'/4!8va(!c''/4=b'/4_b'/4g'/4=e'/4!8va)!c'/4b/4b/4g/4=e/4_d/4c/4d/4c/4=B/4c/4=e/4g/4_b/4_d'/4c'/4g/4 (3b/)(b/c'/(3b/=a/b/(3=b/c'/g/ _b/a<)!>!_a(g/ | %23
[Q:3/8=40]{/g)} !trill(!Tf3{=ef} !wedge!g(gd) (_e3 c3) | %24
[Q:3/8=30] (37:24:36B/4!8va(![f''a'']/4[=e''g'']/4[_e''_g'']/4[d''f'']/4[_d''_f'']/4[c''e'']/4[=b'=d'']/4[_b'_d'']/4[=a'c'']/4[_a'_c'']/4[g'b']/4[f'=a']/4[=f'_a']/4[=e'=g']/4[_e'_g']/4[d'f']/4[_d'_f']/4[c'e']/4[=b=d']/4[_b_d']/4[=ac']/4[_a_c']/4!8va)![gb]/4[^f=a]/4[=f_a]/4[=eg]/4[_e_g]/4([df]/4[e=g]/4[df]/4[^c=e]/4[df]/4[_ca]/4[Bd]/4A/ !>![G_e]6)[Q:3/8=40] x9 | %25
!p! !>!e3 (fef g6) |!pp! e3- e/(f/e/)(f/e/f/ g2) (!turn!e e')d'c' | %27
"_sempre" b2 (=a _a)!pp!(cd ef/Pe/d/e/)"_dolcissimo."{/e} .g'(.f'/.e'/.d'/.c'/ | %28
 _c'b__b) (b/a/) (a/g/) ((g/>f/) !>!e6) |!p! e3- (8:6:8e/(f/e/f/e/)!<(!(f/e/f/)!<)! g3 z2 z | %30
 !wedge!e(A/B/TA/G/ A/_c/e/a/e'/)z/4(f'/4!8va(! g'e') !>![e'e'']2 [d'd''][c'=c''] | %31
 [_c'_c''][bb'][__b__b'] [_a_a'][gg'][dd'] [ee'] !>![e'e'']2- (3([e'e'']/[=e=e']/[ff']/(3[^f^f']/[gg']/[aa']/(3:2:4[=a=a']/[d'd'']/)z/4[=c'=c'']/4 | %32
!ff! ([_c'_c'']6 !fermata![bb']6) | %33
!<(! _c''/b'/=c''/=a'/ _c''/b'/=c''/a'/ _c''/b'/=c''/a'/ _c''/b'/=c''/a'/ _c''/b'/=c''/a'/ _c''/b'/=c''/a'/ | %34
 _c''/b'/=c''/=a'/ _c''/b'/=c''/a'/ _c''/b'/=c''/a'/!<)! | %35
 _c''/b'/=c''/=a'/ _c''/b'/=c''/a'/!>(! _c''/b'/=c''/a'/!>)! | %36
 _c''/b'/d''/=c''/ b'/=a'/_a'/g'/ f'/d'/e'/c'/!8va)! bacd | %37
!pp!"^Tempo I." ([Ge]Bg [Ge]Bg [Ge]Bg [Ge]Bg) | %38
 [Ge]2 x2 x4 E,2 B,2 G2 B,2 E2 G2 B2 g2 e2 g2 b2 e'2 g'2 z!8va(! g'' | %39
 g''6!8va)!!pp! [G,E]3 [G,E]3 | !fermata![G,E]12 |] %41
V:2
 z | %1
!ped! .E,,([G,E][B,EG])!ped-up!!ped! .E,([A,D][_CDA])!ped-up!!ped! .E,,([G,E][B,EG])!ped-up!!ped! .D,,([G,E][B,EG])!ped-up! | %2
!ped! C,,[G,=E][B,EG]!ped-up!!ped! C,[A,E][CEB]!ped-up!!ped! F,,[F,_D][B,DE]!ped-up!!ped! F,,[F,C][A,CF]!ped-up! | %3
!ped! B,,[F,=D][B,DA]!ped-up!!ped! =B,,[G,F][DFG]!ped-up!!ped! C,[G,E][CEG]!ped-up!!ped! =A,,[_G,E][CE_G]!ped-up! | %4
!ped! _B,,[F,E][B,EA]!ped-up!!ped! B,,,[F,D][B,A]!ped-up!!ped! E,,[G,E][B,EG]!ped-up!!ped! E,[G,E][B,EG]!ped-up! | %5
!ped! .E,[G,E][B,EG]!ped-up!!ped! .E,([A,D][_CDA])!ped-up!!ped! .E,([G,E][B,EG])!ped-up!!ped! .D,([G,E][B,EG])!ped-up! | %6
!ped! C,[G,=E][B,EG]!ped-up!!ped! C,[G,E][CE_B]!ped-up!!ped! F,,[F,_D][B,DE]!ped-up!!ped! F,,[F,C][A,CF]!ped-up! | %7
!ped! B,,[F,=D][B,DA]!ped-up!!ped! =B,,[G,F][DFG]!ped-up!!ped! C,[G,E][CEG]!ped-up!!ped! =A,,[_G,E][CE_G]!ped-up! | %8
!ped! _B,,[F,E][B,EA]!ped-up!!ped! B,,,[F,D][B,A]!ped-up!!ped! E,,[G,E][B,EG]!ped-up!!ped! E,[G,E][B,EG]!ped-up! | %9
!ped! .B,,([F,D][B,DF])!ped-up!!ped! .B,,([F,D][B,DF])!ped-up!!ped! .=A,,([F,C][CF])!ped-up!!ped! .A,,([F,C][CF])!ped-up! | %10
!ped! _A,,[E,C][A,CE]!ped-up!!ped! A,,,[E,_C][A,CE]!ped-up!!ped! .E,,([G,E][B,EG])!ped-up!!ped! .E,([G,E][B,EG])!ped-up! | %11
!ped! =E,,[=E,_D][B,DG]!ped-up!!ped! E,,[E,C][B,CG]!ped-up!!ped! F,,[F,_E][CE=A]!ped-up!!ped! G,,[G,=D][B,DB]!ped-up! | %12
!ped! C,,[G,E][CEG]!ped-up!!ped! F,,[F,E][CEF]!ped-up!!ped! [B,D][=A,^D]^G,!ped-up!!ped! =G,[=F,C_E][B,F]!ped-up! | %13
!ped! E,,[G,E][B,EG]!ped-up!"^simile""_come sopra." E,[A,D][B,D_A] E,[G,E][B,EG] D,[G,E][B,EG] | %14
 C,[G,=E][B,EG] C,[G,E][CEB] F,,[F,_D][B,DE] F,,[F,C][A,CF] | %15
 B,,[F,=D][B,DA] =B,,[G,F][DFG] C,[G,E][CEG] =A,,[_G,E][CE_G] | %16
 B,,[F,E][B,EA] B,,,[F,D][B,DA] E,,[G,E][B,G] E,[G,E][B,G] | %17
 B,,[F,D][B,DF] B,,[F,D][B,DF] =A,,[F,C][CF] A,,[F,C][CF] | %18
 _A,,[E,C][A,CE] A,,,[E,_C][A,CE] E,,[G,E][B,EG] E,[G,E][B,EG] | %19
 =E,,[=E,_D][B,DG] E,,[E,C][B,CG] F,,[F,_E][CE=A] G,,[G,=D][B,DB] | %20
 C,,[G,E][CEG] F,,[F,E][CEF]"^poco rall." [B,D][=A,^D]^G, =G,[=F,CE][B,F] | %21
 .E,,[G,E][B,EG] .E,([A,D][B,DA]) .E,([G,E][B,EG]) .D,([G,E][B,EG]) | %22
 C,([G,=E][B,EG]) C,[G,E][CEB] F,,[F,B,_D][B,DE] F,,[F,C][A,CF] | %23
 B,,[F,=D][B,DA] =B,,[G,F][DFG] C,[G,E][CEG] =A,,[_G,E][CE_G] | %24
 _B,,[F,E][B,EA] B,,,[F,D][B,DA] E,,[=G,E][B,E=G] E,[G,E][B,EG] x9 | %25
!ped! E,,[A,_CE][CEA] E,[A,CE][CEA]!ped-up!!ped! E,,([G,E][B,EG]) .E,([G,E][B,EG])!ped-up! | %26
!ped! E,,[A,_CE][CEA] E,[A,CE][CEA]!ped-up!"^poco rubato."!ped! E,,[G,E][B,EG] E,[G,E][B,EG]!ped-up! | %27
!ped! E,[F,D][B,_A] E,[F,D][B,A]!ped-up!!ped! E,[G,E][B,G]!ped-up!!ped! =A,,[F,E][CEF]!ped-up! | %28
!ped! B,,[F,E][B,E_A]!ped-up!!ped! B,,,[F,D][B,DA]!ped-up!!ped! E,,[G,E][B,EG] E,[G,E][B,EG]!ped-up! | %29
!ped! A,,,[E,A,_C][A,CE] [CEA][A,CE][E,A,C]!ped-up!!ped! E,,[G,E][B,EG] E,[G,E][B,EG]!ped-up! | %30
"^con forza."!ped! A,,,[E,A,_C][A,CE] [E,A,C][A,CE][E,A,C]!ped-up!!ped! E,,[G,E][B,EG]!ped-up!"^stretto."!ped! =A,,[F,E][=CEF]!ped-up! | %31
!ped! B,,[F,B,E][B,EA]!ped-up!!ped! =B,,[G,F][DFG]!ped-up!!ped! C,[G,E][CG]!ped-up!!ped! =A,, [F,C]2!ped-up! | %32
!ped! (8:6:8(_B,,,"^senza tempo."_B,,F,_A,DB,[K:treble]FA) !fermata!d6 | x12 |"^cresc." x6 | x6 | %36
 x10 |[K:bass]!ped! (E,,!ped-up!B,B,, E,B,B,,) (E,,B,B,, E,B,B,,) | E,,,2 E,,2 B,,2 G,2 x8 x16 x4 | %39
 z6 [E,,B,,]3 [E,,B,,]3 | !fermata![E,,B,,]12 |] %41
V:3
 x | x12 | x12 | x12 | x12 | x12 | x12 | x12 | x12 | x12 | x12 | x12 | x12 | x12 | %14
 x3!8va(! x5/4!8va)! x31/4 | x12 | x12 | x12 | x12 | x12 | x12 | x12 | %22
 x21/10!8va(! x7/8!8va)! x361/40 | x12 | (37:12:1x15 x19/40 (37:12:3=g3/4=f/4 x47 | x12 | x12 | %27
 x12 | x12 | x12 | x6!8va(! x6 | x12 | x12 | x12 | x6 | x6 | x6!8va)! x4 | x12 | x35!8va(! x | %39
 x6!8va)! x6 | x12 |] %41
V:4
 x | x12 | x12 | x12 | x12 | x12 | x12 | x12 | x12 | x12 | x12 | x12 | x12 | x12 | x12 | x12 | %16
 x12 | x12 | x12 | x12 | x12 | x12 | x12 | x12 | x21 | x12 | x12 | x12 | x12 | x12 | x12 | %31
 x10 E[CEF] | x9/2[K:treble] x15/2 | x12 | x6 | x6 | x10 |[K:bass] x B,2 x B,2 x B,2 x B,2 | x36 | %39
 x12 | x12 |] %41

